X: 7435
T:the Merry Blacksmith
T:Paddy on the Railroad
R:Reel
O:Ireland
O:Scotland
O:England
M:C
K:D
d2dA BAFA|ABdA BAFA|ABde f2ed|Aeed egfe|\
d2dA BAFA|ABdA BAFA|
ABde f2e2|dBAF D4::\
a2ag f2fe|d2dA BAFA|
ABde f2ed|Beed egfe|\
abag fgfe|d2dA BAFA|ABde f2e2|dBAF D4:|
